X:5
T:Brighthelmstone Hot Bath
C:Sussex Archaeological Soc MS
I:abc2nwc
M:6/8
L:1/8
K:D
dfa gec|dfa gec|dfd Bge|ced cBA|
dfa gec|dfa gec|dfd Bge|cBc d3:|
|:FGA AB=c|B^cd cde|dAd eAe|fag {f}e3|
FGA AB=c|B^cd cde|dag fed|ABc d3:|


